img/logo.svg

<svg xmlns="http://www.w3.org/2000/svg" width="512" height="512" fill="none" viewBox="0 0 512 512"><rect width="512" height="512" fill="#184230" rx="128"/><path fill="#fff" d="M256 128c-76.04 0-128 51.96-128 128s51.96 128 128 128 128-51.96 128-128-51.96-128-128-128m0 224c-58.4 0-96-37.6-96-96s37.6-96 96-96 96 37.6 96 96-37.6 96-96 96"/><path fill="#fff" d="M256 192c-35.3 0-64 28.7-64 64s28.7 64 64 64 64-28.7 64-64-28.7-64-64-64m0 96c-17.7 0-32-14.3-32-32s14.3-32 32-32 32 14.3 32 32-14.3 32-32 32"/></svg>

<?xml version="1.0" encoding="UTF-8"?>
<svg width="512" height="512" viewBox="0 0 512 512" fill="none" xmlns="http://www.w3.org/2000/svg">
  <rect width="512" height="512" rx="128" fill="#184230"/>
  <path d="M256 128C179.96 128 128 179.96 128 256C128 332.04 179.96 384 256 384C332.04 384 384 332.04 384 256C384 179.96 332.04 128 256 128ZM256 352C197.6 352 160 314.4 160 256C160 197.6 197.6 160 256 160C314.4 160 352 197.6 352 256C352 314.4 314.4 352 256 352Z" fill="white"/>
  <path d="M256 192C220.7 192 192 220.7 192 256C192 291.3 220.7 320 256 320C291.3 320 320 291.3 320 256C320 220.7 291.3 192 256 192ZM256 288C238.3 288 224 273.7 224 256C224 238.3 238.3 224 256 224C273.7 224 288 238.3 288 256C288 273.7 273.7 288 256 288Z" fill="white"/>
</svg>
